X: 39198
T: Swiss
R: mazurka
M: 3/4
K: Dmajor
|:A2|d2 d>c A>f|d2 d>e d>f|e>^d e>a c>a|f>A d>f A>f|
(3ded d>c A>F|d2- d>c (3def|e>A a>A c<e|d2 d2:|
|:e>f|g2 e>f g<e|f2 d>e f<d|e>d c>A a<c|d>e f>g a2|
g>f e<f g2|f>e d<e f2|e>A a2 (3gfe|d2 d2:|

